Suru++-Asprómauros/apps/16/login.svg

<svg xmlns="http://www.w3.org/2000/svg" width="16" height="16" version="1.1">
 <defs>
   <style id="current-color-scheme" type="text/css">
   .ColorScheme-Text { color: #ececec; } .ColorScheme-Highlight { color:#5294e2; }
  </style>
  <linearGradient id="arrongin" x1="0%" x2="0%" y1="0%" y2="100%">
   <stop offset="0%" style="stop-color:#dd9b44; stop-opacity:1"/>
   <stop offset="100%" style="stop-color:#ad6c16; stop-opacity:1"/>
  </linearGradient>
  <linearGradient id="aurora" x1="0%" x2="0%" y1="0%" y2="100%">
   <stop offset="0%" style="stop-color:#09D4DF; stop-opacity:1"/>
   <stop offset="100%" style="stop-color:#9269F4; stop-opacity:1"/>
  </linearGradient>
  <linearGradient id="cyberneon" x1="0%" x2="0%" y1="0%" y2="100%">
    <stop offset="0" style="stop-color:#0abdc6; stop-opacity:1"/>
    <stop offset="1" style="stop-color:#ea00d9; stop-opacity:1"/>
  </linearGradient>
  <linearGradient id="fitdance" x1="0%" x2="0%" y1="0%" y2="100%">
   <stop offset="0%" style="stop-color:#1AD6AB; stop-opacity:1"/>
   <stop offset="100%" style="stop-color:#329DB6; stop-opacity:1"/>
  </linearGradient>
  <linearGradient id="oomox" x1="0%" x2="0%" y1="0%" y2="100%">
   <stop offset="0%" style="stop-color:#efefe7; stop-opacity:1"/>
   <stop offset="100%" style="stop-color:#8f8f8b; stop-opacity:1"/>
  </linearGradient>
  <linearGradient id="rainblue" x1="0%" x2="0%" y1="0%" y2="100%">
   <stop offset="0%" style="stop-color:#00F260; stop-opacity:1"/>
   <stop offset="100%" style="stop-color:#0575E6; stop-opacity:1"/>
  </linearGradient>
  <linearGradient id="sunrise" x1="0%" x2="0%" y1="0%" y2="100%">
   <stop offset="0%" style="stop-color: #FF8501; stop-opacity:1"/>
   <stop offset="100%" style="stop-color: #FFCB01; stop-opacity:1"/>
  </linearGradient>
  <linearGradient id="telinkrin" x1="0%" x2="0%" y1="0%" y2="100%">
   <stop offset="0%" style="stop-color: #b2ced6; stop-opacity:1"/>
   <stop offset="100%" style="stop-color: #6da5b7; stop-opacity:1"/>
  </linearGradient>
  <linearGradient id="60spsycho" x1="0%" x2="0%" y1="0%" y2="100%">
   <stop offset="0%" style="stop-color: #df5940; stop-opacity:1"/>
   <stop offset="25%" style="stop-color: #d8d15f; stop-opacity:1"/>
   <stop offset="50%" style="stop-color: #e9882a; stop-opacity:1"/>
   <stop offset="100%" style="stop-color: #279362; stop-opacity:1"/>
  </linearGradient>
  <linearGradient id="90ssummer" x1="0%" x2="0%" y1="0%" y2="100%">
   <stop offset="0%" style="stop-color: #f618c7; stop-opacity:1"/>
   <stop offset="20%" style="stop-color: #94ffab; stop-opacity:1"/>
   <stop offset="50%" style="stop-color: #fbfd54; stop-opacity:1"/>
   <stop offset="100%" style="stop-color: #0f83ae; stop-opacity:1"/>
  </linearGradient>
 </defs>
 <path fill="currentColor" class="ColorScheme-Text" d="M 3.9941406,1 C 2.7359406,1.0145 1.81525,0.9694 1.0625,1.38477 0.68613,1.59243 0.38926938,1.94415 0.22460938,2.38281 0.05993937,2.82148 0,3.34239 0,4 v 8 c 0,0.65761 0.05989937,1.17853 0.22460938,1.61719 C 0.38927938,14.05585 0.68613,14.40758 1.0625,14.61523 1.81525,15.03055 2.7359506,14.98543 3.9941406,15 h 0.00391 8.0039064 0.0039 c 1.25819,-0.0145 2.178891,0.0306 2.931641,-0.38477 0.37637,-0.20766 0.673221,-0.55938 0.837891,-0.99804 C 15.939881,13.17852 16,12.65761 16,12 V 4 C 16,3.34239 15.9401,2.82148 15.775391,2.38281 15.610731,1.94415 15.31387,1.59243 14.9375,1.38477 14.18475,0.96943 13.264059,1.01452 12.005859,1 h -0.0039 -8.0039061 z m 0.00586,1 h 8.0000004 c 1.25852,0.0147 2.087175,0.0598 2.453125,0.26172 0.18341,0.1012 0.289159,0.21274 0.386719,0.47265 C 14.937274,2.99428 15,3.40761 15,4 v 8 c 0,0.59239 -0.0626,1.00573 -0.160156,1.26562 -0.0976,0.25991 -0.203309,0.37147 -0.386719,0.47266 C 14.087175,13.94019 13.25852,13.98529 12,14 H 4.0058594 4 C 2.74147,13.9853 1.9108819,13.9402 1.5449219,13.73828 1.3615119,13.63709 1.2577162,13.52553 1.1601562,13.26562 1.0625862,13.00573 1,12.59239 1,12 V 4 C 1,3.40761 1.062596,2.99427 1.1601562,2.73437 1.2577562,2.47447 1.3615119,2.36291 1.5449219,2.26172 1.9108819,2.05981 2.74147,2.01471 4.0000006,2 Z m 0,4.5 a 1.5,1.5 0 0 0 -1.5,1.5 1.5,1.5 0 0 0 1.5,1.5 1.5,1.5 0 0 0 1.5,-1.5 1.5,1.5 0 0 0 -1.5,-1.5 z m 4,0 a 1.5,1.5 0 0 0 -1.5,1.5 1.5,1.5 0 0 0 1.5,1.5 1.5,1.5 0 0 0 1.5,-1.5 1.5,1.5 0 0 0 -1.5,-1.5 z m 4.0000004,0 a 1.5,1.5 0 0 0 -1.5,1.5 1.5,1.5 0 0 0 1.5,1.5 1.5,1.5 0 0 0 1.5,-1.5 1.5,1.5 0 0 0 -1.5,-1.5 z"/>
</svg>

<svg xmlns="http://www.w3.org/2000/svg" width="16" height="16" version="1.1">
<defs>
  <style id="current-color-scheme" type="text/css">
   .ColorScheme-Text { color:#ececec; } .ColorScheme-Highlight { color:#5294e2; }
  </style>
  <linearGradient id="arrongin" x1="0%" x2="0%" y1="0%" y2="100%">
   <stop offset="0%" style="stop-color:#dd9b44; stop-opacity:1"/>
   <stop offset="100%" style="stop-color:#ad6c16; stop-opacity:1"/>
  </linearGradient>
  <linearGradient id="aurora" x1="0%" x2="0%" y1="0%" y2="100%">
   <stop offset="0%" style="stop-color:#09D4DF; stop-opacity:1"/>
   <stop offset="100%" style="stop-color:#9269F4; stop-opacity:1"/>
  </linearGradient>
  <linearGradient id="fitdance" x1="0%" x2="0%" y1="0%" y2="100%">
   <stop offset="0%" style="stop-color:#1AD6AB; stop-opacity:1"/>
   <stop offset="100%" style="stop-color:#329DB6; stop-opacity:1"/>
  </linearGradient>
  <linearGradient id="oomox" x1="0%" x2="0%" y1="0%" y2="100%">
   <stop offset="0%" style="stop-color:#efefe7; stop-opacity:1"/>
   <stop offset="100%" style="stop-color:#8f8f8b; stop-opacity:1"/>
  </linearGradient>
  <linearGradient id="rainblue" x1="0%" x2="0%" y1="0%" y2="100%">
   <stop offset="0%" style="stop-color:#00F260; stop-opacity:1"/>
   <stop offset="100%" style="stop-color:#0575E6; stop-opacity:1"/>
  </linearGradient>
  <linearGradient id="sunrise" x1="0%" x2="0%" y1="0%" y2="100%">
   <stop offset="0%" style="stop-color: #FF8501; stop-opacity:1"/>
   <stop offset="100%" style="stop-color: #FFCB01; stop-opacity:1"/>
  </linearGradient>
  <linearGradient id="telinkrin" x1="0%" x2="0%" y1="0%" y2="100%">
   <stop offset="0%" style="stop-color: #b2ced6; stop-opacity:1"/>
   <stop offset="100%" style="stop-color: #6da5b7; stop-opacity:1"/>
  </linearGradient>
  <linearGradient id="60spsycho" x1="0%" x2="0%" y1="0%" y2="100%">
   <stop offset="0%" style="stop-color: #df5940; stop-opacity:1"/>
   <stop offset="25%" style="stop-color: #d8d15f; stop-opacity:1"/>
   <stop offset="50%" style="stop-color: #e9882a; stop-opacity:1"/>
   <stop offset="100%" style="stop-color: #279362; stop-opacity:1"/>
  </linearGradient>
  <linearGradient id="90ssummer" x1="0%" x2="0%" y1="0%" y2="100%">
   <stop offset="0%" style="stop-color: #f618c7; stop-opacity:1"/>
   <stop offset="20%" style="stop-color: #94ffab; stop-opacity:1"/>
   <stop offset="50%" style="stop-color: #fbfd54; stop-opacity:1"/>
   <stop offset="100%" style="stop-color: #0f83ae; stop-opacity:1"/>
  </linearGradient>
  <linearGradient id="cyberneon" x1="0%" x2="0%" y1="0%" y2="100%">
    <stop offset="0" style="stop-color:#0abdc6; stop-opacity:1"/>
    <stop offset="1" style="stop-color:#ea00d9; stop-opacity:1"/>
  </linearGradient>
 </defs>
 <g transform="translate(-331.99997,-239.99994)">
  <path style="fill:currentColor" class="ColorScheme-Text" d="M 3.9941406 1 C 2.7359406 1.0145 1.81525 0.96939563 1.0625 1.3847656 C 0.68613 1.5924256 0.38926938 1.9441525 0.22460938 2.3828125 C 0.059939375 2.8214825 0 3.34239 0 4 L 0 12 C 0 12.65761 0.059899375 13.178528 0.22460938 13.617188 C 0.38927938 14.055847 0.68613 14.407584 1.0625 14.615234 C 1.81525 15.030554 2.7359506 14.98543 3.9941406 15 L 3.9980469 15 L 12.001953 15 L 12.005859 15 C 13.264049 14.9855 14.18475 15.030604 14.9375 14.615234 C 15.31387 14.407574 15.610721 14.055847 15.775391 13.617188 C 15.939881 13.178517 16 12.65761 16 12 L 16 4 C 16 3.34239 15.940101 2.8214825 15.775391 2.3828125 C 15.610731 1.9441525 15.31387 1.5924256 14.9375 1.3847656 C 14.18475 0.96942563 13.264059 1.01452 12.005859 1 L 12.001953 1 L 3.9980469 1 L 3.9941406 1 z M 4 2 L 12 2 C 13.25852 2.0147 14.087175 2.0597987 14.453125 2.2617188 C 14.636535 2.3629188 14.742284 2.474455 14.839844 2.734375 C 14.937274 2.994285 15 3.40761 15 4 L 15 12 C 15 12.59239 14.937404 13.005725 14.839844 13.265625 C 14.742244 13.525535 14.636535 13.637091 14.453125 13.738281 C 14.087175 13.940191 13.25852 13.98529 12 14 L 4.0058594 14 L 4 14 C 2.74147 13.9853 1.9108819 13.940201 1.5449219 13.738281 C 1.3615119 13.637091 1.2577162 13.525535 1.1601562 13.265625 C 1.0625862 13.005725 1 12.59239 1 12 L 1 4 C 1 3.40761 1.0625962 2.994275 1.1601562 2.734375 C 1.2577562 2.474465 1.3615119 2.3629088 1.5449219 2.2617188 C 1.9108819 2.0598088 2.74147 2.01471 4 2 z M 4 6.5 A 1.5 1.5 0 0 0 2.5 8 A 1.5 1.5 0 0 0 4 9.5 A 1.5 1.5 0 0 0 5.5 8 A 1.5 1.5 0 0 0 4 6.5 z M 8 6.5 A 1.5 1.5 0 0 0 6.5 8 A 1.5 1.5 0 0 0 8 9.5 A 1.5 1.5 0 0 0 9.5 8 A 1.5 1.5 0 0 0 8 6.5 z M 12 6.5 A 1.5 1.5 0 0 0 10.5 8 A 1.5 1.5 0 0 0 12 9.5 A 1.5 1.5 0 0 0 13.5 8 A 1.5 1.5 0 0 0 12 6.5 z" transform="translate(331.99997,239.99994)"/>
 </g>
</svg>
